X: 101
T: Buffalo Society Song (a)
C: Teton Sioux band 1911-1914
N: Derived from sioux101.krn
O: South Dakota, U.S.A.
N: Teton Sioux Music by Frances Densmore, 1918
Z: transcribed to **kern format by Craig Sapp
L: 1/8
M: 2/4
Q: 1/4=58
K: Bb clef=treble
%%linebreak <none>
G2G2 [I:setbarnb 2]| 
G G/ G/ F E ]|:  
E2E2 | 
F E/ E/ C/ B, A,/ | 
C2C2 ||  
[M:3/4]D C/ C/ B, B, A,3/ A,/ ||  
[M:2/4]A,4 :|]  



